trunk/WorldWind/resources/milstd2525/icons/ems/effama---------.svg

<?xml version="1.0" encoding="UTF-8" standalone="no"?>
<!--
Copyright (C) 2012 United States Government as represented by the Administrator of the
National Aeronautics and Space Administration.
All Rights Reserved.
-->

<!--
MIL-STD-2525 tactical symbol icon image. During icon composition this image is multiplied by the desired frame color 
(e.g. black), then drawn on top of the frame and fill.
-->

<svg
   xmlns:dc="http://purl.org/dc/elements/1.1/"
   xmlns:cc="http://creativecommons.org/ns#"
   xmlns:rdf="http://www.w3.org/1999/02/22-rdf-syntax-ns#"
   xmlns:svg="http://www.w3.org/2000/svg"
   xmlns="http://www.w3.org/2000/svg"
   xmlns:sodipodi="http://sodipodi.sourceforge.net/DTD/sodipodi-0.dtd"
   xmlns:inkscape="http://www.inkscape.org/namespaces/inkscape"
   height="400px"
   viewBox="0 0 400 400"
   width="400px"
   id="svg2"
   version="1.1"
   inkscape:version="0.48.2 r9819"
   sodipodi:docname="effama---------.svg">
  <metadata
     id="metadata12">
    <rdf:RDF>
      <cc:Work
         rdf:about="">
        <dc:format>image/svg+xml</dc:format>
        <dc:type
           rdf:resource="http://purl.org/dc/dcmitype/StillImage" />
      </cc:Work>
    </rdf:RDF>
  </metadata>
  <defs
     id="defs10" />
  <sodipodi:namedview
     pagecolor="#ffffff"
     bordercolor="#666666"
     borderopacity="1"
     objecttolerance="10"
     gridtolerance="10"
     guidetolerance="10"
     inkscape:pageopacity="0"
     inkscape:pageshadow="2"
     inkscape:window-width="640"
     inkscape:window-height="480"
     id="namedview8"
     showgrid="false"
     inkscape:zoom="0.59"
     inkscape:cx="200"
     inkscape:cy="200"
     inkscape:window-x="0"
     inkscape:window-y="0"
     inkscape:window-maximized="0"
     inkscape:current-layer="svg2" />
  <g
     transform="matrix(100,0,0,100,74,66)"
     id="g4"
     style="stroke:#000000;stroke-width:0.06;stroke-miterlimit:4;stroke-opacity:1;stroke-dasharray:0.12, 0.06;stroke-dashoffset:0">
    <path
       inkscape:connector-curvature="0"
       d="m 1.60673,1.61271 0.39294,0 0,0.10076 0.22669,0 0,-0.58941 -0.22669,0 0,0.09571 -0.38286,0 c -0.01022,0 -0.06549,-0.066 -0.06549,-0.08563 l 0,-0.141059 -0.24685,0 0,-0.206543 0.3073,0 0,-0.090678 -0.705272,0 0,0.090678 0.302252,0 0,0.206543 -0.221653,0 0,0.166239 L 0.98301,1.15631 0.938116,1.21708 0.508522,1.21977 l 0,-0.09571 -0.221657,0 0,0.58941 0.221657,0 0,-0.10076 0.423161,0 c 0.009028,0 0.051233,0.06079 0.059497,0.07148 0.01181,0.01529 0.05442,0.04682 0.07242,0.05856 0.04815,0.03143 0.11785,0.06139 0.19553,0.06139 l 0.01511,0 c 0.08838,0 0.14585,-0.02586 0.20316,-0.0588 C 1.51269,1.72507 1.59665,1.65048 1.60673,1.61271 z"
       style="fill:#ffffff;stroke:#000000;stroke-width:0.06;stroke-miterlimit:4;stroke-opacity:1;stroke-dasharray:0.12, 0.06;stroke-dashoffset:0"
       id="path6" />
  </g>
</svg>

<?xml version="1.0"?>
<!--
Copyright (C) 2012 United States Government as represented by the Administrator of the
National Aeronautics and Space Administration.
All Rights Reserved.
-->

<!DOCTYPE svg PUBLIC "-//W3C//DTD SVG 1.1//EN" "http://www.w3.org/Graphics/SVG/1.1/DTD/svg11.dtd" >
<!--
MIL-STD-2525 tactical symbol icon image. During icon composition this image is multiplied by the desired frame color 
(e.g. black), then drawn on top of the frame and fill.
-->
<svg xmlns:xlink="http://www.w3.org/1999/xlink" height="400px" viewBox="0 0 400 400" width="400px"><g transform="scale(100) translate(0.74 0.66)"><path d="M1.60673 1.61271 L1.99967 1.61271 L1.99967 1.71347 L2.22636 1.71347 L2.22636 1.12406     L1.99967 1.12406 L1.99967 1.21977 L1.61681 1.21977 C1.60659 1.21977 1.55132     1.15377 1.55132 1.13414 L1.55132 0.993081 L1.30447 0.993081 L1.30447 0.786538     L1.61177 0.786538 L1.61177 0.69586 L0.906498 0.69586 L0.906498 0.786538     L1.20875 0.786538 L1.20875 0.993081 L0.987097 0.993081 L0.987097 1.15932 L0.98301     1.15631 L0.938116 1.21708 L0.508522 1.21977 L0.508522 1.12406 L0.286865     1.12406 L0.286865 1.71347 L0.508522 1.71347 L0.508522 1.61271 L0.931683     1.61271 C0.940711 1.61271 0.982916 1.6735 0.99118 1.68419 C1.00299 1.69948 1.0456     1.73101 1.0636 1.74275 C1.11175 1.77418 1.18145 1.80414 1.25913 1.80414     L1.27424 1.80414 C1.36262 1.80414 1.42009 1.77828 1.4774 1.74534 C1.51269     1.72507 1.59665 1.65048 1.60673 1.61271 z" style="fill:rgb(255,255,255)"/></g></svg>
